packages/storefront-lwc/src/assets/images/visa-dark.svg

<svg height="60" viewBox="0 0 100 60" width="100" xmlns="http://www.w3.org/2000/svg"><g fill="none" fill-rule="evenodd"><rect fill="#26337a" height="60" rx="4" width="100"/><path d="m41.49 39.547 3.075-19.074h4.915l-3.075 19.074z" fill="#fff"/><path d="m64.232871 20.9408451c-.9717834-.3828169-2.5001567-.8002817-4.4040876-.8002817-4.8591981 0-8.2796958 2.5884507-8.3080875 6.2949296-.0309217 2.7416901 2.4408433 4.2707042 4.3042949 5.1819718 1.9151751.9340845 2.5586267 1.531831 2.5510368 2.3670422-.0132119 1.2774648-1.5286543 1.8628169-2.9417741 1.8628169-1.967742 0-3.0131752-.288169-4.6295346-1.0002816l-.6322074-.303662-.6873041 4.2695774c1.1460691.5312677 3.2706682.9923944 5.4756636 1.0166198 5.1641981 0 8.5197603-2.5571831 8.5591152-6.5152113.0177097-2.1740845-1.2919632-3.8219718-4.1283226-5.1825352-1.7175576-.8845071-2.7717051-1.4704225-2.7596175-2.3656338.0011244-.7926761.8905438-1.6414085 2.8155576-1.6414085 1.6076451-.0259155 2.7714239.3453521 3.6782719.7329578l.4413364.2180281zm6.5444285 11.8433803c.4073226-1.0963381 1.9579033-5.3315493 1.9579033-5.3315493-.0286728.0504225.4050737-1.1047888.6532903-1.8197184l.3317051 1.6450705s.9431106 4.552676 1.1373548 5.5061972zm6.0634563-12.2921127h-3.7983042c-1.1781152 0-2.0599447.3374648-2.5760553 1.5811267l-7.298917 17.4802817h5.1622304s.8421935-2.3515493 1.0333456-2.8676056c.5630553 0 5.5791106.0098591 6.2950876.0098591.1472995.6656339.5984746 2.8577465.5984746 2.8577465h4.561788zm-39.4740277-.0033803-4.8105668 13.0039437-.5152673-2.6433803c-.896447-3.0456338-3.6869862-6.3467606-6.8083871-8.0008451l4.4009954 16.6816901 5.2015853-.0030985 7.7399723-19.0383099z" fill="#fff"/><path d="m28.0905115 20.4757746h-7.9257834l-.0652166.3952113c6.1671844 1.58 10.2477189 5.3938028 11.9413825 9.9783099l-1.7223364-8.7642254c-.297129-1.2087324-1.1606866-1.5670422-2.2280461-1.6092958" fill="#ed982d"/></g></svg>

<svg xmlns="http://www.w3.org/2000/svg" width="100" height="60" viewBox="0 0 100 60">
  <g fill="none" fill-rule="evenodd">
    <rect width="100" height="60" fill="#26337A" rx="4"/>
    <polyline fill="#FFFFFF" points="41.49 39.547 44.565 20.473 49.48 20.473 46.405 39.547 41.49 39.547"/>
    <path fill="#FFFFFF" d="M64.232871 20.9408451C63.2610876 20.5580282 61.7327143 20.1405634 59.8287834 20.1405634 54.9695853 20.1405634 51.5490876 22.7290141 51.5206959 26.435493 51.4897742 29.1771831 53.9615392 30.7061972 55.8249908 31.6174648 57.7401659 32.5515493 58.3836175 33.1492958 58.3760276 33.984507 58.3628157 35.2619718 56.8473733 35.8473239 55.4342535 35.8473239 53.4665115 35.8473239 52.4210783 35.5591549 50.8047189 34.8470423L50.1725115 34.5433803 49.4852074 38.8129577C50.6312765 39.3442254 52.7558756 39.8053521 54.960871 39.8295775 60.1250691 39.8295775 63.4806313 37.2723944 63.5199862 33.3143662 63.5376959 31.1402817 62.228023 29.4923944 59.3916636 28.131831 57.674106 27.2473239 56.6199585 26.6614085 56.6320461 25.7661972 56.6331705 24.9735211 57.5225899 24.1247887 59.4476037 24.1247887 61.0552488 24.0988732 62.2190276 24.4701408 63.1258756 24.8577465L63.567212 25.0757746 64.232871 20.9408451M70.7772995 32.7842254C71.1846221 31.6878873 72.7352028 27.4526761 72.7352028 27.4526761 72.70653 27.5030986 73.1402765 26.3478873 73.3884931 25.6329577L73.7201982 27.2780282C73.7201982 27.2780282 74.6633088 31.8307042 74.857553 32.7842254L70.7772995 32.7842254 70.7772995 32.7842254zM76.8407558 20.4921127L73.0424516 20.4921127C71.8643364 20.4921127 70.9825069 20.8295775 70.4663963 22.0732394L63.1674793 39.5535211 68.3297097 39.5535211C68.3297097 39.5535211 69.1719032 37.2019718 69.3630553 36.6859155 69.9261106 36.6859155 74.9421659 36.6957746 75.6581429 36.6957746 75.8054424 37.3614085 76.2566175 39.5535211 76.2566175 39.5535211L80.8184055 39.5535211 76.8407558 20.4921127 76.8407558 20.4921127zM37.3667281 20.4887324L32.5561613 33.4926761 32.040894 30.8492958C31.144447 27.803662 28.3539078 24.5025352 25.2325069 22.8484507L29.6335023 39.5301408 34.8350876 39.5270423 42.5750599 20.4887324 37.3667281 20.4887324"/>
    <path fill="#ED982D" d="M28.0905115,20.4757746 L20.1647281,20.4757746 L20.0995115,20.8709859 C26.2666959,22.4509859 30.3472304,26.2647887 32.040894,30.8492958 L30.3185576,22.0850704 C30.0214286,20.876338 29.157871,20.5180282 28.0905115,20.4757746"/>
  </g>
</svg>
